svg/u1faaa.svg

<svg viewBox="0 0 128 128" xmlns="http://www.w3.org/2000/svg" xmlns:xlink="http://www.w3.org/1999/xlink">
  <g>
    <path d="M4,93.33V34.67c0-4.68,3.83-8.5,8.5-8.5H115.5c4.68,0,8.5,3.83,8.5,8.5v58.67 c0,4.68-3.83,8.5-8.5,8.5H12.5C7.83,101.84,4,98.01,4,93.33z" fill="#B9E4EA"/>
    <g>
      <path d="M42.43,89.13H15.19c-0.85,0-1.54-0.69-1.54-1.54V50.57c0-0.85,0.69-1.54,1.54-1.54h27.24 c0.85,0,1.54,0.69,1.54,1.54v37.03C43.97,88.44,43.28,89.13,42.43,89.13z" fill="#FFFFFF"/>
      <g>
        <linearGradient id="SVGID_1_" gradientTransform="matrix(1 0 0 -1 0 128.1102)" gradientUnits="userSpaceOnUse" x1="28.8131" x2="28.8131" y1="74.3475" y2="38.9792">
          <stop offset="0.1531" stop-color="#1E88E5"/>
          <stop offset="1" stop-color="#1565C0"/>
        </linearGradient>
        <path d="M43.87,87.95v1.18H13.75v-1.18c0-4.63,5.87-6.87,12.38-7.34v-0.32 c-2.74-0.83-5.19-2.89-6.4-6.28c-1.24-0.44-1.95-4.51-1.62-5.04c-0.24-1.71-1.86-15.12,10.7-15.21l0,0l0,0 c12.53,0.06,10.93,13.44,10.67,15.18c0.32,0.53-0.38,4.6-1.62,5.04c-1.18,3.39-3.63,5.48-6.37,6.31v0.29 C38.04,81.11,43.87,83.59,43.87,87.95z" fill="url(#SVGID_1_)"/>
      </g>
    </g>
    <path d="M115.5,26.16H12.5c-4.68,0-8.5,3.83-8.5,8.5v5.33h120v-5.33C124,29.99,120.17,26.16,115.5,26.16z" fill="#2F7889"/>
    <path d="M79.09,53.76H54.33c-1.31,0-2.37-1.06-2.37-2.37v0c0-1.31,1.06-2.37,2.37-2.37h24.76 c1.31,0,2.37,1.06,2.37,2.37v0C81.45,52.7,80.39,53.76,79.09,53.76z" fill="#82AEC0"/>
    <path d="M87.96,65.55H54.33c-1.31,0-2.37-1.06-2.37-2.37v0c0-1.31,1.06-2.37,2.37-2.37h33.63 c1.31,0,2.37,1.06,2.37,2.37v0C90.32,64.49,89.26,65.55,87.96,65.55z" fill="#82AEC0"/>
    <path d="M75.27,77.34H54.33c-1.31,0-2.37-1.06-2.37-2.37l0,0c0-1.31,1.06-2.37,2.37-2.37h20.94 c1.31,0,2.37,1.06,2.37,2.37l0,0C77.63,76.28,76.57,77.34,75.27,77.34z" fill="#82AEC0"/>
    <path d="M69.57,89.13H54.33c-1.31,0-2.37-1.06-2.37-2.37v0c0-1.31,1.06-2.37,2.37-2.37h15.24 c1.31,0,2.37,1.06,2.37,2.37v0C71.94,88.07,70.88,89.13,69.57,89.13z" fill="#82AEC0"/>
    <path d="M124,53.79c-0.17-0.01-0.34-0.03-0.52-0.03c-7.84,0-14.19,6.35-14.19,14.19s6.35,14.19,14.19,14.19 c0.17,0,0.34-0.02,0.52-0.03V53.79z" fill="#94D1E0"/>
  </g>
</svg>

<svg viewBox="0 0 128 128" xmlns="http://www.w3.org/2000/svg">
  <defs>
    <linearGradient id="SVGID_1_" gradientTransform="matrix(1 0 0 -1 0 0)" gradientUnits="userSpaceOnUse" x1="28.8131" x2="28.8131" y1="-53.7627" y2="-89.131">
      <stop offset="0.1531" stop-color="#1E88E5"/>
      <stop offset="1" stop-color="#1565C0"/>
    </linearGradient>
  </defs>
  <path d="M4,93.33 L4,34.67 C4,29.99 7.83,26.17 12.5,26.17 L115.5,26.17 C120.18,26.17 124,30 124,34.67 L124,93.34 C124,98.02 120.17,101.84 115.5,101.84 L12.5,101.84 C7.83,101.84 4,98.01 4,93.33 Z" fill="#B9E4EA"/>
  <path d="M42.43,89.13 L15.19,89.13 C14.34,89.13 13.65,88.44 13.65,87.59 L13.65,50.57 C13.65,49.72 14.34,49.03 15.19,49.03 L42.43,49.03 C43.28,49.03 43.97,49.72 43.97,50.57 L43.97,87.6 C43.97,88.44 43.28,89.13 42.43,89.13 Z" fill="#FFFFFF"/>
  <path d="M43.87,87.95 L43.87,89.13 L13.75,89.13 L13.75,87.95 C13.75,83.32 19.62,81.08 26.13,80.61 L26.13,80.29 C23.39,79.46 20.94,77.4 19.73,74.01 C18.49,73.57 17.78,69.5 18.11,68.97 C17.87,67.26 16.25,53.85 28.81,53.76 L28.81,53.76 L28.81,53.76 C41.34,53.82 39.74,67.2 39.48,68.94 C39.8,69.47 39.1,73.54 37.86,73.98 C36.68,77.37 34.23,79.46 31.49,80.29 L31.49,80.58 C38.04,81.11 43.87,83.59 43.87,87.95 Z" fill="url(#SVGID_1_)"/>
  <path d="M115.5,26.16 L12.5,26.16 C7.82,26.16 4,29.99 4,34.66 L4,39.99 L124,39.99 L124,34.66 C124,29.99 120.17,26.16 115.5,26.16 Z" fill="#2F7889"/>
  <path d="M79.09,53.76 L54.33,53.76 C53.02,53.76 51.96,52.7 51.96,51.39 L51.96,51.39 C51.96,50.08 53.02,49.02 54.33,49.02 L79.09,49.02 C80.4,49.02 81.46,50.08 81.46,51.39 L81.46,51.39 C81.45,52.7 80.39,53.76 79.09,53.76 Z" fill="#82AEC0"/>
  <path d="M87.96,65.55 L54.33,65.55 C53.02,65.55 51.96,64.49 51.96,63.18 L51.96,63.18 C51.96,61.87 53.02,60.81 54.33,60.81 L87.96,60.81 C89.27,60.81 90.33,61.87 90.33,63.18 L90.33,63.18 C90.32,64.49 89.26,65.55 87.96,65.55 Z" fill="#82AEC0"/>
  <path d="M75.27,77.34 L54.33,77.34 C53.02,77.34 51.96,76.28 51.96,74.97 L51.96,74.97 C51.96,73.66 53.02,72.6 54.33,72.6 L75.27,72.6 C76.58,72.6 77.64,73.66 77.64,74.97 L77.64,74.97 C77.63,76.28 76.57,77.34 75.27,77.34 Z" fill="#82AEC0"/>
  <path d="M69.57,89.13 L54.33,89.13 C53.02,89.13 51.96,88.07 51.96,86.76 L51.96,86.76 C51.96,85.45 53.02,84.39 54.33,84.39 L69.57,84.39 C70.88,84.39 71.94,85.45 71.94,86.76 L71.94,86.76 C71.94,88.07 70.88,89.13 69.57,89.13 Z" fill="#82AEC0"/>
  <path d="M124,53.79 C123.83,53.78 123.66,53.76 123.48,53.76 C115.64,53.76 109.29,60.11 109.29,67.95 C109.29,75.79 115.64,82.14 123.48,82.14 C123.65,82.14 123.82,82.12 124,82.11 L124,53.79 Z" fill="#94D1E0"/>
</svg>
